public/IAsol.svg

<svg width="212" height="55" viewBox="0 0 212 55" fill="none" xmlns="http://www.w3.org/2000/svg">
<rect x="0.5" y="0.5" width="211" height="53.963" rx="26.9815" fill="url(#paint0_linear_640_4709)" stroke="#AFFFDA"/>
<path d="M69.368 20.7374H71.636V33.4814H69.368V20.7374ZM78.5538 20.7374H80.5158L86.0058 33.4814H83.4138L82.2258 30.5654H76.6998L75.5478 33.4814H73.0098L78.5538 20.7374ZM81.4338 28.6214L79.4718 23.4374L77.4738 28.6214H81.4338ZM98.9942 23.4734C98.7542 23.1254 98.4302 22.8734 98.0222 22.7174C97.6262 22.5494 97.2062 22.4654 96.7622 22.4654C96.4982 22.4654 96.2402 22.4954 95.9882 22.5554C95.7482 22.6154 95.5262 22.7114 95.3222 22.8434C95.1302 22.9754 94.9742 23.1494 94.8542 23.3654C94.7342 23.5694 94.6742 23.8154 94.6742 24.1034C94.6742 24.5354 94.8242 24.8654 95.1242 25.0934C95.4242 25.3214 95.7962 25.5194 96.2402 25.6874C96.6842 25.8554 97.1702 26.0174 97.6982 26.1734C98.2262 26.3294 98.7122 26.5454 99.1562 26.8214C99.6002 27.0974 99.9722 27.4634 100.272 27.9194C100.572 28.3754 100.722 28.9814 100.722 29.7374C100.722 30.4214 100.596 31.0214 100.344 31.5374C100.092 32.0414 99.7502 32.4614 99.3182 32.7974C98.8982 33.1334 98.4062 33.3854 97.8422 33.5534C97.2782 33.7214 96.6842 33.8054 96.0602 33.8054C95.2682 33.8054 94.5062 33.6734 93.7742 33.4094C93.0422 33.1454 92.4122 32.7014 91.8842 32.0774L93.5942 30.4214C93.8702 30.8414 94.2302 31.1714 94.6742 31.4114C95.1302 31.6394 95.6102 31.7534 96.1142 31.7534C96.3782 31.7534 96.6422 31.7174 96.9062 31.6454C97.1702 31.5734 97.4102 31.4654 97.6262 31.3214C97.8422 31.1774 98.0162 30.9974 98.1482 30.7814C98.2802 30.5534 98.3462 30.2954 98.3462 30.0074C98.3462 29.5394 98.1962 29.1794 97.8962 28.9274C97.5962 28.6754 97.2242 28.4654 96.7802 28.2974C96.3362 28.1174 95.8502 27.9494 95.3222 27.7934C94.7942 27.6374 94.3082 27.4274 93.8642 27.1634C93.4202 26.8874 93.0482 26.5274 92.7482 26.0834C92.4482 25.6274 92.2982 25.0214 92.2982 24.2654C92.2982 23.6054 92.4302 23.0354 92.6942 22.5554C92.9702 22.0754 93.3242 21.6794 93.7562 21.3674C94.2002 21.0434 94.7042 20.8034 95.2682 20.6474C95.8322 20.4914 96.4082 20.4134 96.9962 20.4134C97.6682 20.4134 98.3162 20.5154 98.9402 20.7194C99.5762 20.9234 100.146 21.2594 100.65 21.7274L98.9942 23.4734ZM102.454 29.1614C102.454 28.4774 102.574 27.8594 102.814 27.3074C103.066 26.7434 103.402 26.2634 103.822 25.8674C104.242 25.4714 104.74 25.1654 105.316 24.9494C105.892 24.7334 106.504 24.6254 107.152 24.6254C107.8 24.6254 108.412 24.7334 108.988 24.9494C109.564 25.1654 110.062 25.4714 110.482 25.8674C110.902 26.2634 111.232 26.7434 111.472 27.3074C111.724 27.8594 111.85 28.4774 111.85 29.1614C111.85 29.8454 111.724 30.4694 111.472 31.0334C111.232 31.5854 110.902 32.0594 110.482 32.4554C110.062 32.8514 109.564 33.1574 108.988 33.3734C108.412 33.5894 107.8 33.6974 107.152 33.6974C106.504 33.6974 105.892 33.5894 105.316 33.3734C104.74 33.1574 104.242 32.8514 103.822 32.4554C103.402 32.0594 103.066 31.5854 102.814 31.0334C102.574 30.4694 102.454 29.8454 102.454 29.1614ZM104.614 29.1614C104.614 29.4974 104.668 29.8214 104.776 30.1334C104.896 30.4454 105.064 30.7214 105.28 30.9614C105.508 31.2014 105.778 31.3934 106.09 31.5374C106.402 31.6814 106.756 31.7534 107.152 31.7534C107.548 31.7534 107.902 31.6814 108.214 31.5374C108.526 31.3934 108.79 31.2014 109.006 30.9614C109.234 30.7214 109.402 30.4454 109.51 30.1334C109.63 29.8214 109.69 29.4974 109.69 29.1614C109.69 28.8254 109.63 28.5014 109.51 28.1894C109.402 27.8774 109.234 27.6014 109.006 27.3614C108.79 27.1214 108.526 26.9294 108.214 26.7854C107.902 26.6414 107.548 26.5694 107.152 26.5694C106.756 26.5694 106.402 26.6414 106.09 26.7854C105.778 26.9294 105.508 27.1214 105.28 27.3614C105.064 27.6014 104.896 27.8774 104.776 28.1894C104.668 28.5014 104.614 28.8254 104.614 29.1614ZM113.908 19.8734H116.068V33.4814H113.908V19.8734ZM126.432 33.4814H124.38V32.0954H124.344C124.14 32.5274 123.828 32.9054 123.408 33.2294C122.988 33.5414 122.418 33.6974 121.698 33.6974C121.122 33.6974 120.63 33.6074 120.222 33.4274C119.826 33.2354 119.502 32.9834 119.25 32.6714C118.998 32.3474 118.818 31.9814 118.71 31.5734C118.602 31.1654 118.548 30.7394 118.548 30.2954V24.8414H120.708V29.2154C120.708 29.4554 120.72 29.7254 120.744 30.0254C120.768 30.3134 120.828 30.5894 120.924 30.8534C121.032 31.1054 121.188 31.3214 121.392 31.5014C121.608 31.6694 121.908 31.7534 122.292 31.7534C122.652 31.7534 122.952 31.6934 123.192 31.5734C123.444 31.4534 123.648 31.2914 123.804 31.0874C123.972 30.8834 124.092 30.6494 124.164 30.3854C124.236 30.1214 124.272 29.8454 124.272 29.5574V24.8414H126.432V33.4814ZM127.876 26.6774V24.8414H129.658V22.3394H131.818V24.8414H134.194V26.6774H131.818V30.4574C131.818 30.8894 131.896 31.2314 132.052 31.4834C132.22 31.7354 132.544 31.8614 133.024 31.8614C133.216 31.8614 133.426 31.8434 133.654 31.8074C133.882 31.7594 134.062 31.6874 134.194 31.5914V33.4094C133.966 33.5174 133.684 33.5894 133.348 33.6254C133.024 33.6734 132.736 33.6974 132.484 33.6974C131.908 33.6974 131.434 33.6314 131.062 33.4994C130.702 33.3794 130.414 33.1934 130.198 32.9414C129.994 32.6774 129.85 32.3534 129.766 31.9694C129.694 31.5854 129.658 31.1414 129.658 30.6374V26.6774H127.876ZM135.934 24.8414H138.094V33.4814H135.934V24.8414ZM135.628 21.9074C135.628 21.5594 135.754 21.2594 136.006 21.0074C136.27 20.7434 136.6 20.6114 136.996 20.6114C137.392 20.6114 137.722 20.7374 137.986 20.9894C138.262 21.2294 138.4 21.5354 138.4 21.9074C138.4 22.2794 138.262 22.5914 137.986 22.8434C137.722 23.0834 137.392 23.2034 136.996 23.2034C136.6 23.2034 136.27 23.0774 136.006 22.8254C135.754 22.5614 135.628 22.2554 135.628 21.9074ZM140.142 29.1614C140.142 28.4774 140.262 27.8594 140.502 27.3074C140.754 26.7434 141.09 26.2634 141.51 25.8674C141.93 25.4714 142.428 25.1654 143.004 24.9494C143.58 24.7334 144.192 24.6254 144.84 24.6254C145.488 24.6254 146.1 24.7334 146.676 24.9494C147.252 25.1654 147.75 25.4714 148.17 25.8674C148.59 26.2634 148.92 26.7434 149.16 27.3074C149.412 27.8594 149.538 28.4774 149.538 29.1614C149.538 29.8454 149.412 30.4694 149.16 31.0334C148.92 31.5854 148.59 32.0594 148.17 32.4554C147.75 32.8514 147.252 33.1574 146.676 33.3734C146.1 33.5894 145.488 33.6974 144.84 33.6974C144.192 33.6974 143.58 33.5894 143.004 33.3734C142.428 33.1574 141.93 32.8514 141.51 32.4554C141.09 32.0594 140.754 31.5854 140.502 31.0334C140.262 30.4694 140.142 29.8454 140.142 29.1614ZM142.302 29.1614C142.302 29.4974 142.356 29.8214 142.464 30.1334C142.584 30.4454 142.752 30.7214 142.968 30.9614C143.196 31.2014 143.466 31.3934 143.778 31.5374C144.09 31.6814 144.444 31.7534 144.84 31.7534C145.236 31.7534 145.59 31.6814 145.902 31.5374C146.214 31.3934 146.478 31.2014 146.694 30.9614C146.922 30.7214 147.09 30.4454 147.198 30.1334C147.318 29.8214 147.378 29.4974 147.378 29.1614C147.378 28.8254 147.318 28.5014 147.198 28.1894C147.09 27.8774 146.922 27.6014 146.694 27.3614C146.478 27.1214 146.214 26.9294 145.902 26.7854C145.59 26.6414 145.236 26.5694 144.84 26.5694C144.444 26.5694 144.09 26.6414 143.778 26.7854C143.466 26.9294 143.196 27.1214 142.968 27.3614C142.752 27.6014 142.584 27.8774 142.464 28.1894C142.356 28.5014 142.302 28.8254 142.302 29.1614ZM151.56 24.8414H153.612V26.2274H153.648C153.852 25.7954 154.164 25.4234 154.584 25.1114C155.004 24.7874 155.574 24.6254 156.294 24.6254C156.87 24.6254 157.356 24.7214 157.752 24.9134C158.16 25.1054 158.49 25.3574 158.742 25.6694C158.994 25.9814 159.174 26.3414 159.282 26.7494C159.39 27.1574 159.444 27.5834 159.444 28.0274V33.4814H157.284V29.1074C157.284 28.8674 157.272 28.6034 157.248 28.3154C157.224 28.0154 157.158 27.7394 157.05 27.4874C156.954 27.2234 156.798 27.0074 156.582 26.8394C156.366 26.6594 156.072 26.5694 155.7 26.5694C155.34 26.5694 155.034 26.6294 154.782 26.7494C154.542 26.8694 154.338 27.0314 154.17 27.2354C154.014 27.4394 153.9 27.6734 153.828 27.9374C153.756 28.2014 153.72 28.4774 153.72 28.7654V33.4814H151.56V24.8414Z" fill="#2AD9A3"/>
<path d="M32.0506 29.7307L29.7553 27.3809L24.7538 32.8153C24.2428 33.38 24.8527 34.2635 25.5536 33.9646L31.7657 31.2434C31.9019 31.1839 32.0218 31.0909 32.1148 30.9726C32.2078 30.8542 32.2712 30.7142 32.2992 30.5648C32.3273 30.4154 32.3193 30.2612 32.2758 30.1158C32.2323 29.9703 32.1548 29.8381 32.05 29.7307H32.0506Z" stroke="#1ECB95" stroke-linecap="round" stroke-linejoin="round"/>
<path d="M28.1518 24.6402L30.4471 27.3808L35.4485 21.0407C35.9595 20.3819 35.3497 19.351 34.6488 19.6998L28.4367 22.8761C28.3005 22.9455 28.1806 23.054 28.0876 23.1921C27.9945 23.3301 27.9312 23.4935 27.9031 23.6678C27.875 23.8421 27.8831 24.022 27.9266 24.1917C27.97 24.3614 28.0476 24.5156 28.1524 24.6409L28.1518 24.6402Z" stroke="#1ECB95" stroke-linecap="round" stroke-linejoin="round"/>
<circle cx="30.1002" cy="27.4815" r="15.2037" stroke="#1ECB95"/>
<defs>
<linearGradient id="paint0_linear_640_4709" x1="122.358" y1="43.1852" x2="123.667" y2="-41.8765" gradientUnits="userSpaceOnUse">
<stop stop-color="white"/>
<stop stop-color="#36F9BD" stop-opacity="0"/>
<stop offset="0.932292" stop-color="#36F9BD" stop-opacity="0.33"/>
</linearGradient>
</defs>
</svg>

<svg xmlns="http://www.w3.org/2000/svg" width="212" height="55" fill="none" xmlns:v="https://vecta.io/nano"><rect x=".5" y=".5" width="211" height="53.963" rx="26.982" fill="url(#A)" stroke="#afffda"/><path d="M69.368 20.737h2.268v12.744h-2.268V20.737zm9.186 0h1.962l5.49 12.744h-2.592l-1.188-2.916H76.7l-1.152 2.916H73.01l5.544-12.744zm2.88 7.884l-1.962-5.184-1.998 5.184h3.96zm17.56-5.148a2.03 2.03 0 0 0-.972-.756c-.396-.168-.816-.252-1.26-.252a3.33 3.33 0 0 0-.774.09 2.2 2.2 0 0 0-.666.288c-.192.132-.348.306-.468.522-.12.204-.18.45-.18.738 0 .432.15.762.45.99s.672.426 1.116.594l1.458.486c.528.156 1.014.372 1.458.648s.816.642 1.116 1.098.45 1.062.45 1.818c0 .684-.126 1.284-.378 1.8-.252.504-.594.924-1.026 1.26-.42.336-.912.588-1.476.756a6.21 6.21 0 0 1-1.782.252c-.792 0-1.554-.132-2.286-.396s-1.362-.708-1.89-1.332l1.71-1.656a2.95 2.95 0 0 0 1.08.99 3.18 3.18 0 0 0 1.44.342 3 3 0 0 0 .792-.108 2.45 2.45 0 0 0 .72-.324c.216-.144.39-.324.522-.54.132-.228.198-.486.198-.774 0-.468-.15-.828-.45-1.08s-.672-.462-1.116-.63c-.444-.18-.93-.348-1.458-.504a6.37 6.37 0 0 1-1.458-.63 3.68 3.68 0 0 1-1.116-1.08c-.3-.456-.45-1.062-.45-1.818 0-.66.132-1.23.396-1.71a3.75 3.75 0 0 1 1.062-1.188c.444-.324.948-.564 1.512-.72a6.45 6.45 0 0 1 1.728-.234c.672 0 1.32.102 1.944.306.636.204 1.206.54 1.71 1.008l-1.656 1.746zm3.46 5.688c0-.684.12-1.302.36-1.854.252-.564.588-1.044 1.008-1.44s.918-.702 1.494-.918 1.188-.324 1.836-.324 1.26.108 1.836.324 1.074.522 1.494.918.75.876.99 1.44c.252.552.378 1.17.378 1.854s-.126 1.308-.378 1.872a4.27 4.27 0 0 1-.99 1.422c-.42.396-.918.702-1.494.918s-1.188.324-1.836.324-1.26-.108-1.836-.324-1.074-.522-1.494-.918-.756-.87-1.008-1.422c-.24-.564-.36-1.188-.36-1.872zm2.16 0a2.95 2.95 0 0 0 .162.972c.12.312.288.588.504.828a2.62 2.62 0 0 0 .81.576c.312.144.666.216 1.062.216s.75-.072 1.062-.216a2.41 2.41 0 0 0 .792-.576c.228-.24.396-.516.504-.828.12-.312.18-.636.18-.972s-.06-.66-.18-.972c-.108-.312-.276-.588-.504-.828a2.41 2.41 0 0 0-.792-.576c-.312-.144-.666-.216-1.062-.216s-.75.072-1.062.216a2.62 2.62 0 0 0-.81.576c-.216.24-.384.516-.504.828a2.95 2.95 0 0 0-.162.972zm9.294-9.288h2.16v13.608h-2.16V19.873zm12.524 13.608h-2.052v-1.386h-.036c-.204.432-.516.81-.936 1.134-.42.312-.99.468-1.71.468-.576 0-1.068-.09-1.476-.27-.396-.192-.72-.444-.972-.756a3.03 3.03 0 0 1-.54-1.098c-.108-.408-.162-.834-.162-1.278v-5.454h2.16v4.374l.036.81c.024.288.084.564.18.828.108.252.264.468.468.648.216.168.516.252.9.252.36 0 .66-.06.9-.18.252-.12.456-.282.612-.486a1.86 1.86 0 0 0 .36-.702c.072-.264.108-.54.108-.828v-4.716h2.16v8.64zm1.444-6.804v-1.836h1.782v-2.502h2.16v2.502h2.376v1.836h-2.376v3.78c0 .432.078.774.234 1.026.168.252.492.378.972.378a4.06 4.06 0 0 0 .63-.054c.228-.048.408-.12.54-.216v1.818c-.228.108-.51.18-.846.216a5.97 5.97 0 0 1-.864.072c-.576 0-1.05-.066-1.422-.198-.36-.12-.648-.306-.864-.558-.204-.264-.348-.588-.432-.972-.072-.384-.108-.828-.108-1.332v-3.96h-1.782zm8.058-1.836h2.16v8.64h-2.16v-8.64zm-.306-2.934a1.23 1.23 0 0 1 .378-.9c.264-.264.594-.396.99-.396s.726.126.99.378a1.16 1.16 0 0 1 .414.918c0 .372-.138.684-.414.936-.264.24-.594.36-.99.36s-.726-.126-.99-.378a1.29 1.29 0 0 1-.378-.918zm4.514 7.254c0-.684.12-1.302.36-1.854.252-.564.588-1.044 1.008-1.44s.918-.702 1.494-.918 1.188-.324 1.836-.324 1.26.108 1.836.324 1.074.522 1.494.918.75.876.99 1.44c.252.552.378 1.17.378 1.854s-.126 1.308-.378 1.872a4.27 4.27 0 0 1-.99 1.422c-.42.396-.918.702-1.494.918s-1.188.324-1.836.324-1.26-.108-1.836-.324-1.074-.522-1.494-.918-.756-.87-1.008-1.422c-.24-.564-.36-1.188-.36-1.872zm2.16 0a2.95 2.95 0 0 0 .162.972c.12.312.288.588.504.828a2.62 2.62 0 0 0 .81.576c.312.144.666.216 1.062.216s.75-.072 1.062-.216a2.41 2.41 0 0 0 .792-.576c.228-.24.396-.516.504-.828.12-.312.18-.636.18-.972s-.06-.66-.18-.972c-.108-.312-.276-.588-.504-.828a2.41 2.41 0 0 0-.792-.576c-.312-.144-.666-.216-1.062-.216s-.75.072-1.062.216a2.62 2.62 0 0 0-.81.576c-.216.24-.384.516-.504.828a2.95 2.95 0 0 0-.162.972zm9.258-4.32h2.052v1.386h.036c.204-.432.516-.804.936-1.116.42-.324.99-.486 1.71-.486.576 0 1.062.096 1.458.288.408.192.738.444.99.756a2.86 2.86 0 0 1 .54 1.08c.108.408.162.834.162 1.278v5.454h-2.16v-4.374l-.036-.792c-.024-.3-.09-.576-.198-.828-.096-.264-.252-.48-.468-.648-.216-.18-.51-.27-.882-.27-.36 0-.666.06-.918.18a1.86 1.86 0 0 0-.612.486c-.156.204-.27.438-.342.702s-.108.54-.108.828v4.716h-2.16v-8.64z" fill="#2ad9a3"/><g stroke="#1ecb95"><path d="M32.051 29.731l-2.295-2.35-5.001 5.434c-.511.565.099 1.448.8 1.149l6.212-2.721c.136-.059.256-.152.349-.271a.94.94 0 0 0 .184-.408.96.96 0 0 0-.023-.449c-.043-.145-.121-.278-.226-.385h.001zm-3.899-5.091l2.295 2.741 5.001-6.34c.511-.659-.099-1.69-.8-1.341l-6.212 3.176a.94.94 0 0 0-.349.316 1.19 1.19 0 0 0-.184.476 1.29 1.29 0 0 0 .024.524 1.14 1.14 0 0 0 .226.449v-.001z" stroke-linejoin="round"/><circle cx="30.1" cy="27.482" r="15.204"/></g><defs><linearGradient id="A" x1="122.358" y1="43.185" x2="123.667" y2="-41.876" gradientUnits="userSpaceOnUse"><stop stop-color="#fff"/><stop stop-color="#36f9bd" stop-opacity="0"/><stop offset=".932" stop-color="#36f9bd" stop-opacity=".33"/></linearGradient></defs></svg>
